gloss/img/x.svg

<svg width="28" height="22" viewBox="0 0 28 22" fill="none" xmlns="http://www.w3.org/2000/svg">
<path d="M27.1141 2.86538C26.132 3.30131 25.0899 3.58701 24.0228 3.71288C25.1432 3.03788 25.9829 1.98168 26.3878 0.737882C25.331 1.36346 24.1753 1.80435 22.9703 2.04163C22.1593 1.17791 21.086 0.605775 19.9169 0.413879C18.7477 0.221983 17.5479 0.421039 16.5033 0.980203C15.4587 1.53937 14.6277 2.42742 14.139 3.50677C13.6504 4.58612 13.5313 5.7965 13.8003 6.95038C11.6604 6.8427 9.567 6.28627 7.65602 5.31722C5.74504 4.34816 4.05917 2.98813 2.70781 1.32538C2.22929 2.14691 1.97778 3.0809 1.97906 4.03163C1.97802 4.91763 2.19602 5.79014 2.61365 6.57153C3.03128 7.35293 3.63559 8.01896 4.37281 8.51038C3.51829 8.48391 2.68252 8.25332 1.93531 7.83788V7.90413C1.93475 9.14709 2.36449 10.3519 3.15153 11.314C3.93857 12.276 5.03438 12.9359 6.25281 13.1816C5.80281 13.3066 5.32781 13.3654 4.83531 13.3654C4.48781 13.3654 4.15156 13.3366 3.82281 13.2704C4.16679 14.3396 4.83627 15.2746 5.73766 15.9447C6.63906 16.6149 7.72732 16.9866 8.85031 17.0079C6.59177 18.7711 3.72814 19.5708 0.882812 19.2329C3.34228 20.8177 6.20695 21.6589 9.13281 21.6554C19.0328 21.6554 24.4428 13.4529 24.4428 6.34288C24.4428 6.10913 24.4403 5.87788 24.4303 5.64663C25.4845 4.88893 26.3932 3.94716 27.1128 2.86663" fill="white" fill-opacity="0.8"/>
</svg>

<svg xmlns="http://www.w3.org/2000/svg" width="28" height="22" fill="none"><path fill="#fff" fill-opacity=".8" d="M27.114 2.865c-.982.436-2.024.722-3.091.848A5.44 5.44 0 0 0 26.388.738a10.8 10.8 0 0 1-3.418 1.304A5.385 5.385 0 0 0 13.8 6.95 15.28 15.28 0 0 1 2.708 1.325a5.36 5.36 0 0 0-.729 2.707A5.38 5.38 0 0 0 4.373 8.51a5.36 5.36 0 0 1-2.438-.672v.066a5.38 5.38 0 0 0 4.318 5.278c-.45.125-.925.183-1.418.183-.347 0-.683-.028-1.012-.095a5.39 5.39 0 0 0 5.027 3.738 10.87 10.87 0 0 1-7.967 2.225 15.2 15.2 0 0 0 8.25 2.422c9.9 0 15.31-8.202 15.31-15.312q.001-.35-.013-.696a10.8 10.8 0 0 0 2.683-2.78"/></svg>
